X: 20032
T: SUCH A BEAUTY I DID GROW
C:
%R: _
B: Elias Howe "The Musician's Companion" 1843 p.3 #2
S: http://imslp.org/wiki/The_Musician's_Companion_(Howe,_Elias)
Z: 2015 John Chambers <jc:trillian.mit.edu>
M: 2/4
L: 1/8
K: C
% - - - - - - - - - - - - - - - - - - - - - - - - -
G |\
cGGF | FEDC | CDEF | G2 zG | Gccc | cccc | defd |
e2 c>c | dcBA | G2 zA | GAGF | E2G2 | A2B2 | c2 z |]
% - - - - - - - - - - - - - - - - - - - - - - - - -

%%sep 1 1 500

